assets/images/ico_feature2.svg

<svg width="59" height="115" viewBox="0 0 59 115" fill="none" xmlns="http://www.w3.org/2000/svg">
<path d="M54.2707 47.0179H51.9691V43.019C51.9691 36.2329 46.3966 30.6586 39.6128 30.6586H32.9501V20.9642H35.2517C37.9168 20.9642 39.9762 18.7829 39.9762 16.2381V4.72603C39.9762 2.06006 37.7957 0 35.2517 0H23.7434C21.0784 0 19.019 2.18124 19.019 4.72603V16.2381C19.019 18.9041 21.1995 20.9642 23.7434 20.9642H26.0451V30.6586H19.3824C12.5986 30.6586 7.02612 36.2329 7.02612 43.019V47.0179H4.72446C2.05938 47.0179 0 49.1992 0 51.7439V63.2561C0 65.922 2.18052 67.9821 4.72446 67.9821H16.2328C18.8978 67.9821 20.9572 65.8008 20.9572 63.2561V51.7439C20.9572 49.078 18.7767 47.0179 16.2328 47.0179H13.9311V43.019C13.9311 40.1106 16.3539 37.687 19.2613 37.687H39.6128C42.5201 37.687 44.9429 40.1106 44.9429 43.019V47.0179H42.6413C39.9762 47.0179 37.9168 49.1992 37.9168 51.7439V63.2561C37.9168 65.922 40.0973 67.9821 42.6413 67.9821H44.9429V72.1022C44.9429 75.0105 42.5201 77.4341 39.6128 77.4341H36.2209C30.5273 77.4341 25.924 82.039 25.924 87.7345V94.0358H23.6223C20.9572 94.0358 18.8978 96.2171 18.8978 98.7619V110.274C18.8978 112.94 21.0784 115 23.6223 115H35.1306C37.7957 115 39.8551 112.819 39.8551 110.274V98.7619C39.8551 96.0959 37.6745 94.0358 35.1306 94.0358H32.8289V87.7345C32.8289 85.9168 34.2826 84.3414 36.2209 84.3414H39.6128C46.3966 84.3414 51.9691 78.7671 51.9691 71.981V67.9821H54.2707C56.9358 67.9821 58.9952 65.8008 58.9952 63.2561V51.7439C59.1163 49.1992 56.9358 47.0179 54.2707 47.0179Z" fill="black"/>
</svg>

<svg width="59" height="115" fill="none" xmlns="http://www.w3.org/2000/svg"><path d="M54.27 47.018h-2.3v-3.999c0-6.786-5.573-12.36-12.357-12.36H32.95v-9.695h2.302c2.665 0 4.724-2.181 4.724-4.726V4.726C39.976 2.06 37.796 0 35.252 0H23.743c-2.665 0-4.724 2.181-4.724 4.726v11.512c0 2.666 2.18 4.726 4.724 4.726h2.302v9.695h-6.663c-6.783 0-12.356 5.574-12.356 12.36v3.999H4.724C2.06 47.018 0 49.199 0 51.744v11.512c0 2.666 2.18 4.726 4.724 4.726h11.509c2.665 0 4.724-2.181 4.724-4.726V51.744c0-2.666-2.18-4.726-4.724-4.726H13.93v-3.999c0-2.908 2.423-5.332 5.33-5.332h20.352c2.907 0 5.33 2.424 5.33 5.332v3.999H42.64c-2.665 0-4.724 2.181-4.724 4.726v11.512c0 2.666 2.18 4.726 4.724 4.726h2.302v4.12c0 2.908-2.423 5.332-5.33 5.332H36.22a10.29 10.29 0 00-10.297 10.3v6.302h-2.302c-2.665 0-4.724 2.181-4.724 4.726v11.512c0 2.666 2.18 4.726 4.724 4.726H35.13c2.665 0 4.724-2.181 4.724-4.726V98.762c0-2.666-2.18-4.726-4.724-4.726h-2.302v-6.302c0-1.817 1.454-3.393 3.392-3.393h3.392c6.784 0 12.356-5.574 12.356-12.36v-3.999h2.302c2.665 0 4.724-2.181 4.724-4.726V51.744c.121-2.545-2.06-4.726-4.724-4.726z" fill="#000"/></svg>
